X: 7
T: The Pigtown Fling
R: reel
M: 4/4
L: 1/8
K: Gmaj
G2ge d2ed | B2ge dBAB | G2ge d2ed | [1 BGAG EFGA :| [2 BGAF G2z2 ||
|: B2e2 efge | fedf edBA | B2e2 efge | fgaf g2z2 :|


Tune 80	Setting 12578

